X: 1
T:Uncle Joe (Dogwood Dulcimer #13)
C:/Trad
M:4/4
L:1/8
Q:1/4=120
K:D
|FE|"D"DE FA BA FD|F2 F2 F2 FE|DE FA BA FD|"A"E2 E2 E2 FE
w:1~Did you ev-er go to meet-_ing_ Un-cle Joe? Did you ev-er go to meet-_ing_ Un-cle Joe? Did you
w:2~Will your horse_ car-ry dou-_ble_ Un-cle Joe? Will your horse_ car-ry dou-_ble_ Un-cle Joe? Will your
w:3~Is your horse a sin-gle foot-_er_ Un-cle Joe? Is your horse a sin-gle foot-_er_ Un-cle Joe? Is your
|"D"DE FA BA FD|F2 F2 F2 AA|"G"AB dB AD F2|"A"E2 D2 "D"D2 z2|
w:ev-er go to meet-_ing_ Un-cle Joe? I don't mind the wea-ther if the wind don't blow.__
w:horse_ car-ry dou-_ble_ Un-cle Joe? I don't mind the wea-ther if the wind don't blow.__
w:horse a sin-gle foot-_er_ Un-cle Joe? I don't mind the wea-ther if the wind don't blow.__
|"D"D d2 B A2 A2|F F2 F F2-F2|D d2 B A2 A2|"A"E E2 E E2-E2
w:Hop high my la-dies all in a row_ Hop high my la-dies all in a row_
|"D"D d2 B A2 FD|F2 F E F2 A2|"G"A3 BdBDE|"A"F2 E2 "D"D2||
w:Hop high my la-dies_ all in a row, don't mind the wea-ther if the wind don't blow.

